gama.ui.shared/icons_svg/dark/toolbar/font.reset.svg

<svg height="24.75" viewBox="-788.135 -2876.228 24.75 24.75" width="24.75" xmlns="http://www.w3.org/2000/svg"><g fill="none"><circle cx="-775.76" cy="-2863.853" fill="#666" r="8"/><circle cx="-775.76" cy="-2863.853" r="8"/><circle cx="-775.76" cy="-2863.853" fill="#666" r="8"/><circle cx="-775.76" cy="-2863.853" r="8"/><g fill="#c0e0fe"><path d="m-775.7601-2855.8532c-4.4191 0-8-3.5808-8-8 0-4.419 3.5809-8 8-8 4.419 0 8 3.581 8 8 0 4.4192-3.581 8-8 8zm0-.7618c4 0 7.2381-3.2382 7.2381-7.2382s-3.2381-7.2381-7.2381-7.2381-7.2381 3.2381-7.2381 7.2381 3.2381 7.2382 7.2381 7.2382z"/><path d="m-778.8077-2865.0265c-.2134 0-.381-.1675-.381-.381 0-.2133.1676-.3809.381-.3809h6.0952c.2133 0 .3809.1676.3809.3809 0 .2135-.1676.381-.3809.381z"/><path d="m-778.8077-2861.918c-.2134 0-.381-.1676-.381-.381 0-.2132.1676-.381.381-.381h6.0952c.2133 0 .3809.1678.3809.381 0 .2134-.1676.381-.3809.381z"/></g></g></svg>

<?xml version="1.0" encoding="UTF-8" standalone="no"?>
<!DOCTYPE svg PUBLIC "-//W3C//DTD SVG 1.1//EN" "http://www.w3.org/Graphics/SVG/1.1/DTD/svg11.dtd">
<svg xmlns="http://www.w3.org/2000/svg" xmlns:dc="http://purl.org/dc/elements/1.1/" version="1.1" xmlns:xl="http://www.w3.org/1999/xlink" viewBox="-788.1351 -2876.2282 24.75 24.75" width="24.75" height="24.75">
  <defs/>
  <g id="SOURCES" stroke-dasharray="none" stroke-opacity="1" stroke="none" fill="none" fill-opacity="1">
    <title>SOURCES</title>
    <g id="SOURCES_Dark">
      <title>Dark</title>
      <g id="Group_12293">
        <g id="Graphic_12296">
          <circle cx="-775.7601" cy="-2863.8532" r="8.00000702080164" fill="#666"/>
          <circle cx="-775.7601" cy="-2863.8532" r="8.00000702080164" stroke="black" stroke-linecap="round" stroke-linejoin="round" stroke-width="0"/>
        </g>
        <g id="Graphic_12295"/>
        <g id="Graphic_12294">
          <circle cx="-775.7601" cy="-2863.8532" r="8.00000702080164" fill="#666"/>
          <circle cx="-775.7601" cy="-2863.8532" r="8.00000702080164" stroke="black" stroke-linecap="round" stroke-linejoin="round" stroke-width="0"/>
        </g>
      </g>
      <g id="Group_12284">
        <g id="Group_12282">
          <title>minus-circle</title>
          <g id="Graphic_12283">
            <path d="M -775.7601 -2855.8532 C -780.1792 -2855.8532 -783.7601 -2859.434 -783.7601 -2863.8532 C -783.7601 -2868.2722 -780.1792 -2871.8532 -775.7601 -2871.8532 C -771.3411 -2871.8532 -767.7601 -2868.2722 -767.7601 -2863.8532 C -767.7601 -2859.434 -771.3411 -2855.8532 -775.7601 -2855.8532 Z M -775.7601 -2856.615 C -771.7601 -2856.615 -768.522 -2859.8532 -768.522 -2863.8532 C -768.522 -2867.8532 -771.7601 -2871.0913 -775.7601 -2871.0913 C -779.7601 -2871.0913 -782.9982 -2867.8532 -782.9982 -2863.8532 C -782.9982 -2859.8532 -779.7601 -2856.615 -775.7601 -2856.615 Z" fill="#c0e0fe"/>
          </g>
        </g>
        <g id="Group_12279">
          <g id="Graphic_12281">
            <path d="M -778.8077 -2865.0265 C -779.0211 -2865.0265 -779.1887 -2865.194 -779.1887 -2865.4075 C -779.1887 -2865.6208 -779.0211 -2865.7884 -778.8077 -2865.7884 L -772.7125 -2865.7884 C -772.4992 -2865.7884 -772.3316 -2865.6208 -772.3316 -2865.4075 C -772.3316 -2865.194 -772.4992 -2865.0265 -772.7125 -2865.0265 Z" fill="#c0e0fe"/>
          </g>
          <g id="Graphic_12280">
            <path d="M -778.8077 -2861.918 C -779.0211 -2861.918 -779.1887 -2862.0856 -779.1887 -2862.299 C -779.1887 -2862.5122 -779.0211 -2862.68 -778.8077 -2862.68 L -772.7125 -2862.68 C -772.4992 -2862.68 -772.3316 -2862.5122 -772.3316 -2862.299 C -772.3316 -2862.0856 -772.4992 -2861.918 -772.7125 -2861.918 Z" fill="#c0e0fe"/>
          </g>
        </g>
      </g>
    </g>
  </g>
</svg>
